X:1
T:3 Strmmingar,
T:polska efter Rjs Jonas
S:efter Rjs Jonas
M:3/4
O:Boda, Dalarna
R:Polska
Z:frn http://www.leeds.ac.uk/music/Info/RRTuneBk/contact.html|Richard Robinsons samling.
K:Ddor
|:(3:2:5A2ABA^G A>^c|d2 d^c e>e|\
(3^f2d2e2 ^c>A|(3:2:4B2G2BA E>E|\
(3:2:5F2ABA^G A>^c|^c<d d3A:|
|:(3A2g2a2 f>d|(3:2:4e2d2ed ^c>A|\
(3A2g2a2 f>d|(3:2:4e2d2ed ^c>A|
(3:2:5A2ABA^G A>^c|d>e d^c e>e|\
(3^f2d2e2 ^c>A|(3:2:4B2G2BA E>E|\
(3:2:5F2ABA^G A>^c|^c<d d3A:|
